!!!!SEGMENT: pl-kk--kk-i-6--025-002_sabino-ippolito--missa-brevis-et-in-terra.krn
!!!cenid: 16xx:985
!!!COM: Sabino, Ippolito
!!!COM-rismid: pe30011894
!!!CDT: ~1550-1593
!!!CNT: Italian
!!!OPR: Missa brevis
!!!OTL: Et in terra
!!!OMV: 002
!!!PDT:
!!!AGN: Sacred; Mass
!!!SMS-siglum: PL-Kk
!!!SMS-shelfmark: Kk.I.6
!!!SMS-shelfwork: 025-002 M
!!!SMS-variant:
!!!SMS-altvar:
!!!NIFC-rismid: 1001135985
!!!URL-scan: http://repozytorium.nifc.pl/skany/pl-kk-nut--i-6
!!!ONB-nifc: UWAGA: C (skan 0023-0027, s. 42-51), T (skan 0126-0131, s. 56-66), B (skan 0237-0241, s. 56-65) Części Mszy: 1 Kyrie, 2. Et in terra, 3. Patrem, 4. Sanctus, 5. Agnus Dei
!!!AIN: 1 empty 1 tenor 1 vox
!!!key:
**kern	**text	**kern	**text	**kern	**text
*part3	*part3	*part2	*part2	*part1	*part1
*staff3	*staff3	*staff2	*staff2	*staff1	*staff1
*Iempty	*	*Itenor	*	*Ivox	*
*I"Baſsus.	*	*I"Tenor.	*	*I"Cantus.	*
*I'B	*	*I'T	*	*I'S	*
*clefF4	*	*clefC4	*	*clefC4	*
*k[b-]	*	*k[b-]	*	*k[b-]	*
*F:	*	*F:	*	*F:	*
*M2/1	*	*M2/1	*	*M2/1	*
*met(c|)	*	*met(c|)	*	*met(c|)	*
=1	=1	=1	=1	=1	=1
!LO:TX:t=P:problem=przed kluczem inicjał E	!	!	!	!	!
!	!	!LO:TX:t=P:problem=przed kluczem inicjał E	!	!	!
!	!	!	!	!LO:TX:t=P:problem=przed kluczem inicjał E	!
1.C/	ET	1.E/	ET	1.G/	ET
!	!	!	!	!LO:TX:t=P:problem=kreska pseudotaktowa	!
2AA/	in	2E/	in	2A/	in
=2-	=2-	=2-	=2-	=2-	=2-
!	!	!	!	!LO:TX:t=P:problem=all\center&colon; global	!
!	!	!	!	!LO:TX:t=P:♯below:problem	!
!	!	!	!	!LO:N:acc=#	!
2.GG/	ter-	2.G/	ter-	2.Bn\	ter-
!LO:TX:t=P:problem=4/center or right&colon; global	!	!LO:TX:t=P:problem=4/center or right&colon; global	!	!	!
4GG/	-ra	4G/	-ra	4B\	-ra
2FF/	pax	2A/	pax	2c\	pax
!	!	!	!	!LO:TX:t=P:problem=kreska pseudotaktowa	!
2C/	ho-	2G/	ho-	2c\	ho-
=3-	=3-	=3-	=3-	=3-	=3-
!	!	!LO:TX:t=P:problem=all\center&colon; global	!	!	!
2.BB-/	-mi-	2.B-\	-mi-	2.F/	-mi-
!	!	!	!	!LO:TX:t=P:problem=4/center or right&colon; global	!
!	!	!	!	!LO:TX:t=P:problem=kreska pseudotaktowa	!
4BB-/	-ni-	4B-\	-ni-	4F/	-ni-
2FF/	-bus	2A/	-bus	2F/	-bus
!LO:TX:t=P:problem=all\center&colon; global	!	!	!	!	!
2.F\	Bo-	2.c\	bo-	2.A/	bo-
=4-	=4-	=4-	=4-	=4-	=4-
.	.	.	.	.	.
4F\	-nae	4c\	-nae	4A/	-nae
4BB-/	Vo-	4d\	Vo-	4B-y\	Vo-
*custos:C	*	*	*	*custos:G	*
!	!	!	!	!LO:TX:t=P:problem=kreska pseudotaktowa	!
4BB-/	-lun-	4d\	-lun-	4B-\	-lun-
*	*	*custos:B	*	*	*
!	!	!	!	!LO:TX:t=P:problem=kreska pseudotaktowa	!
!LO:LB:g=original	!	!	!	!LO:LB:g=original	!
1C/	-ta-	1c\	-ta-	1G/	-ta-
=5-	=5-	=5-	=5-	=5-	=5-
!	!	!LO:N:acc=#	!	!	!
!	!	!LO:TX:t=P:♯below:problem	!	!	!
!	!	!LO:LB:g=original	!	!	!
4GG/	-tis	4Bn\	-tis	4G/	-tis
4C/	Lau-	4c\	Lau-	4G/	lau-
4C/	-da-	4c\	-da-	4G/	-da-
!	!	!	!	!LO:TX:t=P:problem=kreska pseudotaktowa	!
4C/	-mus	4c\	-mus	4G/	-mus
2FF/	te	2A/	te	2F/	te
!	!	!	!	!LO:TX:t=P:problem=kreska pseudotaktowa	!
2FF/	Be-	2A/	Be-	2F/	Be-
=6-	=6-	=6-	=6-	=6-	=6-
2FF/	-ne-	2A/	-ne-	2F/	-ne-
2.BB-/	-di-	2.B-y\	-di-	2.F/	-di-
4BB-/	-ci-	4B-\	-ci-	4F/	-ci-
!	!	!	!	!LO:TX:t=P:problem=kreska pseudotaktowa	!
2BB-/	-mus	2B-\	-mus	2F/	-mus
=7-	=7-	=7-	=7-	=7-	=7-
2AA/	te	1A\	te	2F/	te
2.F\	A-	.	.	2.A/	A-
.	.	1rA	.	.	.
4F\	-do-	.	.	4A/	-do-
4D/	-ra-	.	.	4B-\	-ra-
!	!	!	!	!LO:TX:t=P:problem=kreska pseudotaktowa	!
4E\	-mus	.	.	4G/	-mus
=8-	=8-	=8-	=8-	=8-	=8-
1F\	te	2rF	.	1A\	te
.	.	2F/	Glo-	.	.
*custos:BB	*	*	*	*	*
1rD	.	4A/	-ri-	1r	.
.	.	4A/	-fi-	.	.
.	.	4G/	-ca-	.	.
.	.	4G/	-mus	.	.
=9-	=9-	=9-	=9-	=9-	=9-
!LO:LB:g=original	!	!	!	!	!
2r	.	2F/	te	2r	.
2.BB-/	Gra-	2.B-\	Gra-	2.d\	Gra-
4BB-/	-ti-	4B-\	-ti-	4d\	-ti-
*	*	*custos:G	*	*custos:c	*
!	!	!	!	!LO:TX:t=P:problem=kreska pseudotaktowa	!
2BB-/	-as	2B-\	-as	2d\	-as
=10-	=10-	=10-	=10-	=10-	=10-
!	!	!LO:LB:g=original	!	!LO:LB:g=original	!
2.C/	a-	2.G/	a-	2.c\	a-
4C/	-gi-	4G/	-gi-	4c\	-gi-
!	!	!	!	!LO:N:acc=#	!
!	!	!	!	!LO:TX:t=P:♯below:problem	!
2GG/	-mus	2G/	-mus	2Bn\	-mus
!	!	!	!	!LO:TX:t=P:problem=kreska pseudotaktowa	!
2C/	ti-	2G/	ti-	2c\	ti-
=11-	=11-	=11-	=11-	=11-	=11-
2FF/	-bi	2F/	-bi	0c\	-bi
2F\	pro-	2A/	pro-	.	.
2E\	-pter	2G/	-pter	.	.
2F\	Ma-	2A/	ma-	.	.
=12-	=12-	=12-	=12-	=12-	=12-
2C/	-gn(am)	2G/	-gn(am)	2r	.
2.C/	glo-	2.G/	glo-	2.c\	glo-
4C/	-ri-	4G/	-ri-	4c\	-ri-
!	!	!LO:TX:t=P:global:problem=oddech jako rozdzielacz słów	!	!	!
2AA/	-am	2A,</	-am	1c\	-am
=13-	=13-	=13-	=13-	=13-	=13-
1D\	tu-	1F/	tu-	.	.
!	!	!	!	!LO:TX:t=P:problem=kreska pseudotaktowa	!
!	!	!	!	!LO:N:acc=#	!
!	!	!	!	!LO:TX:t=P:problem=♯above	!
.	.	.	.	2B-\	tu-
2C/	-am	2G/	-am	2c\	-am
2.C/	Do-	2.G/	Do-	2.c\	Do-
=14-	=14-	=14-	=14-	=14-	=14-
.	.	.	.	.	.
4C/	-mi-	4G/	-mi-	4c\	-mi-
*custos:C	*	*	*	*	*
!	!	!	!	!LO:TX:t=P:problem=kreska pseudotaktowa	!
!	!	!	!	!LO:N:acc=#	!
!	!	!	!	!LO:TX:t=P:♯below:problem	!
2GG/	-ne	2G/	-ne	2Bn\	-ne
!LO:LB:g=original	!	!	!	!	!
1C/	De-	1G/	De-	1c\	De-
=15-	=15-	=15-	=15-	=15-	=15-
2GG/	-us	2G/	-us	2Bny\	-us
!	!	!LO:TX:t=P:♯below:problem	!	!	!
!	!	!LO:LB:g=original	!	!	!
1D\	Rex	1F#X/	Rex	1A\	Rex
2E-X\	Cae-	2G/	Cae-	1G/	Cae-
=16-	=16-	=16-	=16-	=16-	=16-
*	*	*	*	*custos:F	*
1D\	-le-	1A\	-le-	.	.
!	!	!	!	!LO:TX:t=P:problem=kreska pseudotaktowa	!
!	!	!	!	!LO:N:acc=#	!
!	!	!	!	!LO:TX:t=P:♯below:problem	!
!	!	!	!	!LO:LB:g=original	!
.	.	.	.	2F#X/	-le-
2GG/	-ſtis	2Bn\	-ſtis	2G/	-stis
2GG/	De-	2B\	De-	2.G/	De-
=17-	=17-	=17-	=17-	=17-	=17-
2C/	-us	2c\	-us	.	.
.	.	.	.	4G/	-us
!	!	!	!	!LO:TX:t=P:problem=kreska pseudotaktowa	!
2C/	Pa-	2c\	Pa-	2G/	Pa-
2FF/	-ter	1c\	-ter	2A/	-ter
2F\	O-	.	.	2c\	O-
=18-	=18-	=18-	=18-	=18-	=18-
2Eny\	-mni-	1r	.	2c\	-mni-
!	!	!	!	!LO:TX:t=P:problem=kreska pseudotaktowa	!
!	!	!	!	!LO:N:acc=#	!
!	!	!	!	!LO:TX:t=P:♯below:problem	!
2D/	-po-	.	.	2Bn\	-po-
2C/	-tens	2r	.	2c\	-tens
2.FF/	D(o-	2.Fny/	Do-	2.A/	Do-
=19-	=19-	=19-	=19-	=19-	=19-
.	.	.	.	.	.
4FF/	-mi)-	4F/	-mi-	4A/	-mi-
!	!	!	!	!LO:TX:t=P:problem=kreska pseudotaktowa	!
2FF/	-ne	2F/	-ne	2A/	-ne
2.BB-/	fi-	2.F/	fi-	2.B-y\	fi-
*custos:F	*	*	*	*	*
!	!	!	!	!LO:TX:t=P:problem=kreska pseudotaktowa	!
4BB-/	-li	4F/	-li	4B-\	-li
=20-	=20-	=20-	=20-	=20-	=20-
!LO:LB:g=original	!	!	!	!	!
4FF/	U-	4F/	U-	4A/	U-
*	*	*	*	*custos:G	*
4FF/	-ni-	4F/	-ni-	4A/	-ni-
!	!	!	!	!LO:LB:g=original	!
4C/	-ge-	4E/	-ge-	4G/	-ge-
!	!	!	!	!LO:TX:t=P:problem=kreska pseudotaktowa	!
4D/	-ni-	4D/	-ni-	4Fny/	-ni-
2C/	-te	2E/	-te	2G/	-te
1C/	Je-	1G/	Je-	1c\	Je-
=21-	=21-	=21-	=21-	=21-	=21-
.	.	.	.	.	.
*	*	*custos:B	*	*	*
2C/	-ſu	2G/	-ſu	2c\	-ſu
!	!	!LO:LB:g=original	!	!	!
0BB-/	Chri-	0B-y\	Chri-	0d\	Chri-
=22-	=22-	=22-	=22-	=22-	=22-
!	!	!	!	!LO:TX:t=P:problem=kreska pseudotaktowa	!
.	.	.	.	.	.
!LO:TX:t=P:global:problem=oddech jako rozdzielacz słów	!	!	!	!	!
2C,</	-ſte	2G/	-ſte	2c,>\	-ſte
2.F\	Do-	2.A/	Do-	2.c\	Do-
=23-	=23-	=23-	=23-	=23-	=23-
.	.	.	.	.	.
4F\	-mi-	4A/	-mi-	4c\	-mi-
!	!	!	!	!LO:TX:t=P:problem=kreska pseudotaktowa	!
2F\	-ne	2A/	-ne	2c\	-ne
1BB-/	De-	1B-\	De-	1d\	De-
=24-	=24-	=24-	=24-	=24-	=24-
2F\	-us	2A/	-us	2c\	-us
2.FF/	fi-	2.F/	fi-	2.A/	Fi-
4FF/	-li-	4F/	-li-	4A/	-li-
*custos:B	*	*	*	*	*
!	!	!	!	!LO:TX:t=P:problem=kreska pseudotaktowa	!
2FF/	-us	2F/	-us	2A/	-us
=25-	=25-	=25-	=25-	=25-	=25-
*	*	*lig	*	*	*
!LO:PB:g=original	!	!	!	!	!
2.BB-/	Pa-	1D/	Pa-	4G/	Pa-
.	.	.	.	4F/	.
!	!	!	!	!LO:TX:t=P:problem=kreska pseudotaktowa	!
.	.	.	.	2.F/	.
4AA/	.	.	.	.	.
1GG/	.	1G/	.	.	.
.	.	.	.	8E/L	.
.	.	.	.	8D/J	.
.	.	.	.	2E/	.
*	*	*	*	*custos:F	*
!	!	!	!	!LO:TX:t=P:problem=kreska pseudotaktowa	!
*	*	*Xlig	*	*	*
=26-	=26-	=26-	=26-	=26-	=26-
!	!	!	!	!LO:PB:g=original	!
1FF/	-tris	2C/	-tris	0F/	-tris
.	.	2c\	Qui	.	.
2r	.	2.c\	tol-	.	.
2F\	Qui	.	.	.	.
.	.	4B-\	.	.	.
=27-	=27-	=27-	=27-	=27-	=27-
1F\	tol-	4A/	.	2r	.
.	.	4G/	.	.	.
*	*	*custos:G	*	*	*
!	!	!	!	!LO:TX:t=P:problem=kreska pseudotaktowa	!
.	.	2A/	.	2c\	Qui
!	!	!LO:LB:g=original	!	!	!
2E\	-lis	2G/	-lis	1c\	tol-
2C/	pec-	2G/	pec-	.	.
=28-	=28-	=28-	=28-	=28-	=28-
2D/	-ca-	2F/	-ca-	2B-\	-lis
!	!	!	!	!LO:TX:t=P:problem=kreska pseudotaktowa	!
2E\	-ta	2C/	-ta	2G/	pec-
1F\	mun-	0c\	mun-	2A/	-ca-
.	.	.	.	2A/	-ta
=29-	=29-	=29-	=29-	=29-	=29-
1C/	-di	.	.	1G/	mun-
2rBB	.	2A/	-di	2F,</	-di
!	!	!	!	!LO:TX:t=P:problem=kreska pseudotaktowa	!
1BB-/	Mi-	1B-\	Mi-	2D/	Mi-
=30-	=30-	=30-	=30-	=30-	=30-
.	.	.	.	1F/	-ſe-
2AA/	-ſe-	2c\	-ſe-	.	.
2BB-/	-re-	2d\	-re-	2F/	-re-
2BB-/	-re	2d\	-re	1F/	-re
=31-	=31-	=31-	=31-	=31-	=31-
1C/	no-	1c\	no-	.	.
!	!	!	!	!LO:TX:t=P:problem=kreska pseudotaktowa	!
.	.	.	.	2E/	no-
2FF/	-bis	2c,<\	-bis	0F/	-bis
*custos:B	*	*	*	*	*
2FF/	Qui	2A/	Qui	.	.
=32-	=32-	=32-	=32-	=32-	=32-
!LO:LB:g=original	!	!	!	!	!
1BB-/	tol-	1B-\	tol-	.	.
2FF/	-lis	2A/	-lis	2r	.
!	!	!	!	!LO:TX:t=P:problem=kreska pseudotaktowa	!
2F\	pec-	2c\	pec-	2A/	pec-
=33-	=33-	=33-	=33-	=33-	=33-
2E\	-ca-	2c\	-ca-	2G/	-ca-
*	*	*	*	*custos:F	*
2F\	-ta	1c\	-ta	2A/	-ta
!	!	!	!	!LO:TX:t=P:problem=kreska pseudotaktowa	!
!	!	!	!	!LO:LB:g=original	!
1D\	mun-	.	.	1F/	mun-
*	*	*custos:c	*	*	*
.	.	2B-\	mun-	.	.
=34-	=34-	=34-	=34-	=34-	=34-
!	!	!LO:PB:g=original	!	!	!
2C/	-di	2c\	-di	2G/	-di
1C/	Sus-	1G/	Sus-	1c\	Sus-
!	!	!	!	!LO:TX:t=P:problem=kreska pseudotaktowa	!
2C/	-ci-	2G/	-ci-	2c\	-ci-
=35-	=35-	=35-	=35-	=35-	=35-
2F\	-pe	2A/	-pe	2c\	-pe
2.BB-/	de-	2.B-\	de-	2.d\	de-
4BB-/	-pre-	4B-\	-pre-	4d\	-pre-
4BB-/	-ca-	4B-\	-ca-	4d\	-ca-
!	!	!	!	!LO:TX:t=P:problem=kreska pseudotaktowa	!
4BB-/	-ti-	4B-\	-ti-	4d\	-ti-
=36-	=36-	=36-	=36-	=36-	=36-
2C/	-o-	2G/	-o-	2c\	-o-
2GG/	-nem	1G/	-nem	2B-\	-nem
!	!	!	!	!LO:TX:t=P:problem=kreska pseudotaktowa	!
1D\	No-	.	.	1A\	no-
!	!	!LO:N:acc=#	!	!	!
!	!	!LO:TX:t=P:♯below:problem	!	!	!
.	.	2Fn/	No-	.	.
=37-	=37-	=37-	=37-	=37-	=37-
2GG,</	-ſtram	2G,</	-ſtram	2G/	-ſtram
*custos:C	*	*	*	*	*
2GG/	Qui	2D/	Qui	2G/	qui
!LO:LB:g=original	!	!	!	!	!
1C/	Se-	1E/	ſe-	1G/	ſe-
=38-	=38-	=38-	=38-	=38-	=38-
2FF/	-des	2F/	-des	2A/	-des
2FF/	ad	2F/	ad	2A/	ad
2.BB-/	dex-	2.F/	dex-	2.B-\	dex-
*	*	*	*	*custos:G	*
4FF/	-te-	4F/	-te-	4A/	-te-
=39-	=39-	=39-	=39-	=39-	=39-
!	!	!	!	!LO:LB:g=original	!
2GG/	-ram	2D/	-r(am)	2G/	-ram
!	!	!	!	!LO:TX:t=P:problem=kreska pseudotaktowa	!
!	!	!	!	!LO:TX:t=P:problem=♯above	!
!	!	!	!	!LO:N:acc=#	!
2D/	Pa-	2D/	Pa-	2F#X/	Pa-
2GG/	-tris	2D/	-tris	2G/	-tris
1GG/	Mi-	1G/	Mi-	1B-\	Mi-
=40-	=40-	=40-	=40-	=40-	=40-
.	.	.	.	.	.
*	*	*custos:E	*	*	*
!	!	!	!	!LO:TX:t=P:problem=kreska pseudotaktowa	!
2GG/	-ſe-	2G/	-ſe-	2B-\	-ſe-
!	!	!LO:LB:g=original	!	!	!
2C/	-re-	2E/	-re-	2A/	-re-
2C/	-re	2E/	-re	1G/	-re
=41-	=41-	=41-	=41-	=41-	=41-
1AA/	no-	1C/	no-	.	.
.	.	.	.	2Fny/	no-
!	!	!	!	!LO:TX:t=P:problem=kreska pseudotaktowa	!
1GG/	-bis	1D/	-bis	1G/	-bis
=42-	=42-	=42-	=42-	=42-	=42-
!	!	!	!	!LO:N:acc=#	!
2.GG/	Quo-	2.G/	Quo-	2.Bn\	Quo-
4GG/	-ni-	4G/	-ni-	4B\	-ni-
2GG/	-am	2G/	-am	2B\	-am
!	!	!	!	!LO:TX:t=P:problem=kreska pseudotaktowa	!
2GG/	tu	2G/	tu	2B\	tu
=43-	=43-	=43-	=43-	=43-	=43-
2C/	So-	2G/	So-	2c\	So-
*custos:FF	*	*	*	*	*
2C/	-lus	2G/	-lus	2c\	-lus
*	*	*	*	*custos:c	*
!LO:LB:g=original	!	!	!	!	!
1FF/	San-	1A\	San-	1c\	San-
=44-	=44-	=44-	=44-	=44-	=44-
!	!	!	!	!LO:LB:g=original	!
2C/	-ctus	2G/	-ctus	2c\	-ctus
2C/	Tu	2G/	Tu	1c\	Tu
1D\	ſo-	1F/	So-	.	.
!	!	!	!	!LO:TX:t=P:problem=kreska pseudotaktowa	!
.	.	.	.	2B-y\	So-
=45-	=45-	=45-	=45-	=45-	=45-
2C/	-lus	2G/	-lus	2c\	-lus
1FF/	Do-	1A\	Do-	1c\	Do-
!	!	!	!	!LO:TX:t=P:problem=kreska pseudotaktowa	!
2C/	-mi-	2G/	-mi-	2c\	-mi-
=46-	=46-	=46-	=46-	=46-	=46-
2FF/	-nus	1F/	-nus	2A/	-nus
1F\	Tu	.	.	1A\	Tu
.	.	00r	.	.	.
!	!	!	!	!LO:TX:t=P:problem=kreska pseudotaktowa	!
2E\	So-	.	.	2G/	So-
=47-	=47-	=47-	=47-	=47-	=47-
2F\	-lus	.	.	2A/	-lus
2A\	al-	.	.	1c\	al-
1.G\	-tiſ-	.	.	.	.
!	!	!	!	!LO:TX:t=P:♯below:problem	!
!	!	!	!	!LO:N:acc=#	!
.	.	.	.	4Bn\	.
!	!	!	!	!LO:TX:t=P:problem=kreska pseudotaktowa	!
.	.	.	.	4A/	.
=48-	=48-	=48-	=48-	=48-	=48-
.	.	.	.	4B\	-tiſ-
.	.	.	.	2c\	.
2G\	-si-	.	.	.	.
!	!	!	!	!LO:TX:t=P:problem=kreska pseudotaktowa	!
.	.	.	.	4B\	-ſi-
2C/	-mus	2r	.	2c\	-mus
1BB-/	Je-	1B-\	Je-	1d\	Je-
=49-	=49-	=49-	=49-	=49-	=49-
.	.	.	.	.	.
*	*	*custos:G	*	*	*
2C/	-ſu	2G/	-ſu	1c\	-ſu
!	!	!LO:LB:g=original	!	!	!
1GG/	Chri-	1G/	Chri-	.	.
*	*	*	*	*custos:c	*
!	!	!	!	!LO:TX:t=P:problem=kreska pseudotaktowa	!
!	!	!	!	!LO:TX:t=P:problem=♯above	!
!	!	!	!	!LO:N:acc=#	!
.	.	.	.	2Bn\	Chri-
=50-	=50-	=50-	=50-	=50-	=50-
!	!	!	!	!LO:LB:g=original	!
2C/	-ſte	2G,</	-ſte	2c\	-ſte
*custos:FF	*	*	*	*	*
!	!	!	!	!LO:TX:t=P:problem=kreska pseudotaktowa	!
2FF/	cum	2F/	Cum	2A/	Cum
!LO:LB:g=original	!	!	!	!	!
2FF/	San-	2F/	San-	2A/	San-
2FF/	-cto	2F/	-cto	2A/	-cto
=51-	=51-	=51-	=51-	=51-	=51-
1.BB-/	Spi-	1.F/	Spi-	1.B-y\	Spi-
!	!	!	!	!LO:TX:t=P:problem=kreska pseudotaktowa	!
2BB-/	-ri-	2F/	-ri-	2B-\	-ri-
=52-	=52-	=52-	=52-	=52-	=52-
2FF/	-tu	2F/	-tu	2A,</	-tu
!	!	!	!	!LO:TX:t=P:problem=kreska pseudotaktowa	!
2F\	in	2A/	in	2c\	in
2BB-/	glo-	2B-\	glo-	2d\	glo-
!	!	!	!	!LO:TX:t=P:problem=kreska pseudotaktowa	!
2C/	-ri-	2G/	-ri-	2c\	-ri-
=53-	=53-	=53-	=53-	=53-	=53-
2D/	-a	2F/	-a	2A/	-a
!	!	!	!	!LO:TX:t=P:problem=kreska pseudotaktowa	!
2D/	De-	2F/	De-	2B-\	De-
2C/	-i	2G/	-i	2c\	-i
1BB-/	Pa-	1B-\	Pa-	1d\	Pa-
=54-	=54-	=54-	=54-	=54-	=54-
.	.	.	.	.	.
2FF/	-tris	2A/	-tris	1c\	-tris
1GG/	A-	1G/	A-	.	.
*	*	*	*	*custos:c	*
!	!	!	!	!LO:TX:t=P:problem=kreska pseudotaktowa	!
.	.	.	.	2B-\	A-
=55-	=55-	=55-	=55-	=55-	=55-
!	!	!	!	!LO:LB:g=original	!
0C/	-men	0G/	-men	0c\	-men
=56-	=56-	=56-	=56-	=56-	=56-
0FF/	A-	0A\	A-	0c\	A-
=57-	=57-	=57-	=57-	=57-	=57-
0C/	-men.	0G/	-men.	0c\	-men.
==	==	==	==	==	==
*-	*-	*-	*-	*-	*-
!!!RDF**kern: > = above
!!!RDF**kern: < = below
!!!system-decoration: [(s1,s2,s3)]
!!!EEV: 2021-03-22
!!!ENC: Andrzej Borzym
!!!END: 2021-03-07!!!EED: Andrzej Borzym
